Obsidian/actions/16s/realization.svg

<svg viewBox="0 0 16 16" xmlns="http://www.w3.org/2000/svg"><g fill="#f2f2f2"><path d="m7.5 2-3.5 7h3v2h1v-2h3zm0 2.2363281 1.8828125 3.7636719h-3.765625zm-.5 7.7636719v2h1v-2z"/><path d="m7.5 4.24-2.383 4.764h4.766z" fill-opacity=".5"/></g></svg>

<svg xmlns="http://www.w3.org/2000/svg" viewBox="0 0 16 16">
  <defs id="defs3051">
    <style type="text/css" id="current-color-scheme">
      .ColorScheme-Text {
        color:#f2f2f2;
      }
      </style>
  </defs>
 <path 
     style="fill:currentColor;fill-opacity:1;stroke:none" 
     d="M 7.5 2 L 4 9 L 7 9 L 7 11 L 8 11 L 8 9 L 11 9 L 7.5 2 z M 7.5 4.2363281 L 9.3828125 8 L 5.6171875 8 L 7.5 4.2363281 z M 7 12 L 7 14 L 8 14 L 8 12 L 7 12 z "
     class="ColorScheme-Text"/>
  <path
     style="fill:currentColor;fill-opacity:0.5;stroke:none" 
     d="m 7.5,4.24 -2.383,4.764 4.766,0 z" 
     class="ColorScheme-Text"/>
</svg>
